X: 79
T:Jack's Maggot
M:4/4
L:1/8
S:Playford
O:Manuscript
K:D
d2 D2 F2 A2|BABc d2 e2 A fg a2 Bc d2 | e3 f e2 d c/2d/2|d2 D2 F2 A2| Bc d2 c2 ag| f2 d2 e2 c2 |d4 d2:|
|:fg| a2 f4 a2| f2 d4 ef| gfed c2 d2 | e6 fg | a2 f2 d2 f2 | A2 d2 F2 A2| d3 e e3 d| d6:|

